X: 10834
T: Dreaming Of Bath
R: waltz
M: 3/4
K: Aminor
|:e3 A3|A>Be d B2|A>Be dBA|E3 D3|
e3 a3|b>ab g e2|b>ab edB|A3- A3:|
|:A/B/ce a3|A/B/de b3|A/B/ce a2 g|ge2 d3|
A/B/ c/d/ e/g/ a3|A/B/ c/d/ e/g/ B3|A/B/ce a2g|edB G2 A|A3- A3:|

